!!!OTL: MEINEN HEILAND IM HERZEN
!!!ARE: Europa, Mitteleuropa, Deutschland
!!!SCT: B0756
!!!YEM: Copyright 1995, estate of Helmut Schaffrath.
**kern
*ICvox
*Ivox
*M4/4
*k[f#c#g#]
*A:
{8e
8e
=1
2cc#
4a
4dd
=2
4.cc#
8b
4a}
{4ee
=3
4.b
8a
4g#
4a
=4
2b
4r}
{4f#
=5
2dd
4b
4cc#
=6
4.dd
8cc#
4b}
{4b
=7
2ee
4dd
4dd
=8
2cc#
4r}
{4b
=9
2cc#
4cc#
4cc#
=10
4cc#
4ee
8ee
8dd}
{8cc#
8b
=11
2a
4g#
4g#
=12
2a
4r}
==
!!!AGN: Tageszeiten - Lied, Abend, religioes
!!!ONB: ESAC (Essen Associative Code) Database: BOEHME
!!!AMT: simple quadruple
!!!AIN: vox
!!!EED: Helmut Schaffrath
!!!EEV: 1.0
*-
